X:1
T:Banchory's Lands
M:6/8
L:1/8
K:Bb
 F2 F D2 F| d2- e g2 f| e2 de-d G| F3- F2 D| F2 F D2 F| d2- e g2 f|\
 e2 AA-B c| d3 d2- e| d2 d B2 d| e2 d c2 c| c2 Bc-B G| F3- F2 D| F2 F D2 F|\
 B2 c e2 d| c2 FF-G A| B6|
